!!!!SEGMENT: pl-wtm--r-1226--004_lodwigowski-edward-stefan--runia-szukala-o-chlodzie.krn
!!!cenid: 18xx:1920
!!!COM: Łodwigowski, Edward Stefan
!!!COM-rism: pe30111147
!!!CDT: 1815/08/14-1895/11/12
!!!CNT: Polish
!!!OTL: Runia szukała o chłodzie
!!!PDT:
!!!AGN:
!!!SMS-siglum: PL-Wtm
!!!SMS-shelfmark: R 1226
!!!NIFC-rismID: 1001083980
!!!URL-scan: http://repozytorium.nifc.pl/skany/pl-wtm-nut--r1226-1227
!!!ONB-nifc: UWAGA: No. 52
!!!OMD: No 52. Moderato
!!!SMS-variant:
!!!SMS-altvar:
**kern	**kern	**fing	**dynam
*part	*part1	*	*part1
*staff2	*staff1	*	*
*I"Fortepian	*I"Fortepian	*	*
*clefF4	*clefG2	*	*
*k[]	*k[]	*	*
*M6/8	*M6/8	*	*
*>[A,B,B]	*>[A,B,B]	*>[A,B,B]	*>[A,B,B]
=1	=1	=1	=1
*all\right	*all\right	*	*
*>A	*>A	*>A	*>A
*^	*	*	*
!	!	!LO:TX:a:t=Runia szukała o chłodzie. P.L.P.	!	!
8E/L	4.E 4.C\	(8cc\L	1	p
8G/	.	8ee'\)	3	.
8G/J	.	8ee'\J	2	.
8E/L	4.E 4.C\	(8eem\L	.	.
8G/	.	8dd\	.	.
8G/J	.	8ee\J)	.	.
=2	=2	=2	=2	=2
8F/L	4.F 4.BB\	(4gg\	4	.
8G/	.	.	.	.
8G/J	.	8ff\	.	.
8F/L	4.F 4.BB\	4.dd\)	.	.
8G/	.	.	.	.
8G/J	.	.	.	.
=3	=3	=3	=3	=3
8F/L	4.F 4.BB\	(8dd\L	1	.
8G/	.	8ff'\)	3	.
8G/J	.	8ff'\J	2	.
8D/L	4.D 4.BB\	(8ffM\L	.	.
8G/	.	8ee\	.	.
8G/J	.	8ff\J)	.	.
=4	=4	=4	=4	=4
8E/L	4.E 4.C\	(4aa\	.	.
8G/	.	.	.	.
8G/J	.	8gg\	.	.
8E/L	4.C\	4.ee\)	.	.
8G/	.	.	.	.
8G/J	.	.	.	.
!!LO:LB:g=:original
=5!|:	=5!|:	=5!|:	=5!|:	=5!|:
*>B	*>B	*>B	*>B	*>B
4.E/	8E\L	(8ccc\L	5	f
.	8G\	8bb\	.	.
.	8c\J	8aa\J	.	.
4.E/	8E\L	8gg\L	.	.
.	8G\	8ff\	.	.
.	8c\J	8ee\J)	2	.
=6	=6	=6	=6	=6
4.F/	8F\L	(4aa\	5	>
.	8A\	.	.	.
.	8d\J	8ff\	.	.
4.F/	8F\L	4.dd\)	.	]
.	8A\	.	.	.
.	8d\J	.	.	.
=7	=7	=7	=7	=7
4.G/	8G\L	(8dd\L	.	<
.	8B\	8ff\	.	.
.	8f\J	8aa\J)	.	[
4.G/	8G\L	(8aa\L	.	>
.	8d\	8gg\	.	.
.	8f\J	8b\J)	.	]
*clefG2	*	*	*	*
=8	=8	=8	=8	=8
.	.	[8qb/	.	p
8c/L	[4.c\	(4.dd 4.b\]	.	.
8f/	.	.	.	.
[8g/J	.	.	.	.
4g] 4e/	4c\]	4cc\)	.	.
8r	8rgyy	8r	.	.
*v	*v	*	*	*
=:|!	=:|!	=:|!	=:|!
*-	*-	*-	*-
!!!system-decoration: {s1,s2}
!!!ENC: Marta Lawrence
!!!ENC: 2021-05-01
!!!ENC: Marcin Jachim
!!!END: 2021-04-16
